svg/u1f33c.svg

<svg viewBox="0 0 128 128" xmlns="http://www.w3.org/2000/svg">
  <radialGradient id="SVGID_1_" cx="63.9173" cy="63.8646" gradientUnits="userSpaceOnUse" r="58.9022">
    <stop offset="0.3927" stop-color="#FFD655"/>
    <stop offset="0.4522" stop-color="#FFD450"/>
    <stop offset="0.5214" stop-color="#FFD042"/>
    <stop offset="0.5956" stop-color="#FEC82B"/>
    <stop offset="0.6727" stop-color="#FEBE0A"/>
    <stop offset="0.6917" stop-color="#FEBB01"/>
  </radialGradient>
  <path d="M88.49,37.39c0,0,8.02-8.17,8.31-15.63c0.28-7.46-2.46-9.85-6.12-11.4S83,12.05,83,12.05 s-0.14-4.5-4.93-6.19s-10.7,2.25-12.25,8.17s-1.88,16.8-1.88,16.8s-0.94-11.73-4.74-17.93s-7.46-7.46-12.53-5.91 s-4.79,7.74-4.79,7.74s-4.79-4.93-10.42-2.53s-3.87,11.19-3.03,13.94c0.56,2.25,6.41,13.94,6.41,13.94s-8.92-6.03-16.12-7.39 c-6.34-1.2-10.77,2.18-10.77,6.83s3.52,6.9,3.52,6.9s-5.66,1.52-6.76,6.9c-0.77,3.8,0.75,6.68,3.45,8.73 c4.65,3.52,19.36,4.5,19.36,4.5s-10.7,0.7-16.19,4.08c-5.62,3.46-6.34,8.73-5.07,11.54s7.32,4.22,7.32,4.22s-5.07,6.34-0.99,11.4 s10.14,4.93,13.94,3.1c3.8-1.83,12.81-9.71,12.81-9.71s-7.4,11.7-7.88,18.02c-0.47,6.19,2.64,8.51,6.48,8.87 c3.47,0.33,6.05-2.67,6.05-2.67s1.41,6.05,5.91,6.76s9.15-1.27,11.97-7.46c2.71-5.96,3.94-16.66,3.94-16.66s2.67,16.94,8.59,21.3 c5.91,4.36,10.18,2.53,12.53,0.14c2.25-2.67,1.83-8.59,1.83-8.59s5.07,4.08,9.01,1.55c3.94-2.53,3.1-7.74,1.83-12.39 c-1.27-4.65-7.6-12.39-7.6-12.39s9.43,9.43,17.03,9.15c7.6-0.28,9.44-3.48,9.85-7.32c0.42-3.94-2.96-7.18-2.96-7.18 s6.62-0.7,7.32-7.46c0.7-6.76-6.34-9.01-9.29-9.85s-11.4-1.13-11.4-1.13s12.81-3.52,16.33-7.46c3.52-3.94,3.73-7.81,2.18-10.63 c-1.48-2.69-7.11-3.73-7.11-3.73s2.53-3.38,0.7-8.31c-1.83-4.93-9.43-5.07-13.37-3.8C97.36,31.19,88.49,37.39,88.49,37.39z" fill="url(#SVGID_1_)"/>
  <path d="M53.15,48.6c0,0-3.1-6.19-5.35-13.84c-0.84-2.86-3.45-11.35-2.82-11.87 c0.73-0.61,6.38,9.38,7.84,12.95c1.26,3.09,5.54,10.98,5.54,10.98l10.7-1.83c0,0,3.71-8.31,4.83-10.56 c1.13-2.25,5.44-10.79,6.19-10.42c0.89,0.44-1.13,8.21-2.82,13c-1.69,4.79-3.85,10.79-3.85,10.79l9.01,6.71c0,0,6.34-2.35,10-3.75 c3.66-1.41,10.28-3.38,10.56-2.53c0.28,0.84-3.85,3.75-9.2,6.29s-10.14,5.3-10.14,5.3l0.75,8.4c0,0,7.7,3.89,11.22,5.73 c3.52,1.83,10.32,5.54,10.18,6.52c-0.14,0.99-9.85-1.92-12.39-2.63c-2.53-0.7-12.11-3.99-12.11-3.99l-5.35,6.9 c0,0,3.43,7.93,4.55,10.46c1.13,2.53,5.16,13.19,4.46,13.61s-6.15-7.98-7.88-11.12c-1.74-3.14-7.04-11.83-7.04-11.83l-9.85,3.24 c0,0-3.24,7.18-5.21,11.26s-6.48,11.31-7.18,10.89c-0.7-0.42,2.58-11.45,3.71-14.83s4.04-10.84,4.04-10.84L47.8,75.4 c0,0-8.17,3.38-12.95,4.93c-4.79,1.55-11.26,3.94-11.26,2.82c0-1.13,4.19-3.49,10.98-6.95c7.84-3.99,11.4-5.58,11.4-5.58l-1.41-9.57 c0,0-6.29-2.16-10.79-3.85s-12.86-6.15-12.58-7.41c0.28-1.27,7.6,1.41,12.25,2.82s13.66,4.08,13.66,4.08L53.15,48.6z" fill="#F2A05B"/>
  <path d="M47.8,52.73c0,0-5.21-5.07-6.62-6.48c-1.41-1.41-4.36-4.36-3.66-5.35s6.48,3.8,7.88,5.07 c1.41,1.27,6.48,4.93,6.48,4.93l10.7-5.35c0,0,0.14-4.79,0.28-7.18c0.14-2.39,0-6.76,1.13-6.76c1.13,0,1.55,6.05,1.69,8.17 c0.14,2.11,0.56,6.19,0.56,6.19l10.84,3.52c0,0,3.52-4.08,4.65-5.35c1.13-1.27,3.66-5.07,4.79-4.22c1.13,0.84-3.24,6.76-4.08,8.02 c-0.84,1.27-3.66,4.93-3.66,4.93l4.65,9.57c0,0,5.21-0.14,8.17-0.28c2.96-0.14,8.02,0,8.02,0.84c0,0.84-4.32,2.02-8.26,2.44 s-8.07,0.52-8.07,0.52l-1.64,9.57c0,0,1.92,2.53,4.69,5.02c2.47,2.22,4.46,4.88,3.89,5.73c-0.56,0.84-4.55-2.02-6.38-3.71 c-1.83-1.69-5.21-4.65-5.21-4.65l-10.84,6.19c0,0,0,5.07,0,6.48s-0.56,7.18-1.97,6.76s-1.27-5.77-1.27-7.46 c0-2.92-0.01-6.61,0.05-6.15l-12.29-3c0,0-3.05,2.67-4.46,4.22c-1.41,1.55-5.26,5.35-6.24,4.22s2.25-4.5,3.66-6.05 c1.41-1.55,4.79-4.93,4.79-4.93l-5.49-9.15c0,0-5.35,0.14-7.04,0.14s-7.74,0.56-7.74-1.13c0-1.69,5.35-1.69,7.88-1.83 c2.53-0.14,8.63-0.52,8.63-0.52L47.8,52.73z" fill="#ED6C31"/>
  <path d="M44.99,54c-2.92,5.29-5.02,23.37,9.06,30.27c14.08,6.9,27.26-1.55,31.07-12.67 s-2.67-22.52-13.37-26.89S49.49,45.83,44.99,54z" fill="#ED6C31"/>
  <path d="M58.08,49.21c-6.98,2.16-13.28,12.06-8.12,22.99c4.45,9.43,15.2,11.45,23.46,6.01 c8.37-5.52,9.53-15.3,4.6-22.62C73.1,48.27,65.82,46.82,58.08,49.21z" fill="#F2A05B"/>
  <path d="M54.83,52.6c-1.89,2.01-2.36,4.73-1.04,6.23s4.9,0.8,6.5-1.41s1.6-4.63,0.38-5.83 C59.1,50.04,56.34,51,54.83,52.6z" fill="#FCCD87"/>
  <path d="M62.91,50.99c-0.51,1.27-0.94,4.41,1.6,5.26c2.4,0.8,3.43-0.66,4.22-2.11 c0.84-1.53,0.66-4.08-1.13-4.83C65.28,48.32,63.48,49.59,62.91,50.99z" fill="#FCCD87"/>
  <path d="M69.34,54.05c-0.67,0.99-1.31,4.08,1.78,4.69c3.25,0.64,4.13-3.47,2.67-4.97 C72.61,52.54,70.42,52.45,69.34,54.05z" fill="#FCCD87"/>
  <path d="M74.74,57.99c-0.62,0.55-1.31,2.39,0.19,3.47c1.5,1.08,2.77,0.23,3.24-0.7 c0.27-0.55,0.47-1.69-0.38-2.53C76.95,57.38,75.58,57.24,74.74,57.99z" fill="#FCCD87"/>
  <path d="M60.18,58.61c-0.86,1.97-0.43,4.44,1.67,5.08c2.43,0.74,4.4-0.69,4.45-4 c0.02-1.25-0.76-2.57-2.63-2.91C61.79,56.44,60.62,57.59,60.18,58.61z" fill="#FCCD87"/>
  <path d="M57.94,62.83c-1.61-0.14-2.86,1.59-2.86,3.14c0,1.54,1.2,3.17,2.65,3.14 c2.08-0.05,3.12-1.29,3.07-3.34C60.75,63.92,59.71,62.98,57.94,62.83z" fill="#FCCD87"/>
  <path d="M52.26,59.16c-1.69-0.05-3.38,1.36-3.33,4.18c0.05,2.82,1.27,4.18,2.82,4.08 c1.55-0.09,3.28-1.31,3.47-4.32C55.41,60.1,53.81,59.21,52.26,59.16z" fill="#FCCD87"/>
  <path d="M51.26,68.72c-1.75,1.42-0.59,3.9,0.39,5.24c0.98,1.33,3,2.62,4.58,0.74 c1.57-1.88,0.39-4.2-0.44-5.24C54.95,68.42,53.32,67.04,51.26,68.72z" fill="#FCCD87"/>
  <path d="M56.44,76.66c0.35,1.71,1.5,2.39,3.1,2.35s2.49-1.74,2.44-2.91c-0.05-1.17-1.03-2.55-2.72-2.67 C57.28,73.29,56.06,74.83,56.44,76.66z" fill="#FCCD87"/>
</svg>

<svg viewBox="0 0 128 128" xmlns="http://www.w3.org/2000/svg">
  <defs>
    <radialGradient id="SVGID_1_" cx="63.9173" cy="63.8646" gradientUnits="userSpaceOnUse" r="58.9022">
      <stop offset="0.3927" stop-color="#FFD655"/>
      <stop offset="0.4522" stop-color="#FFD450"/>
      <stop offset="0.5214" stop-color="#FFD042"/>
      <stop offset="0.5956" stop-color="#FEC82B"/>
      <stop offset="0.6727" stop-color="#FEBE0A"/>
      <stop offset="0.6917" stop-color="#FEBB01"/>
    </radialGradient>
  </defs>
  <path d="M88.49,37.39 C88.49,37.39 96.51,29.22 96.8,21.76 C97.08,14.3 94.34,11.91 90.68,10.36 C87.02,8.81 83,12.05 83,12.05 C83,12.05 82.86,7.55 78.07,5.86 C73.28,4.17 67.37,8.11 65.82,14.03 C64.27,19.95 63.94,30.83 63.94,30.83 C63.94,30.83 63,19.1 59.2,12.9 C55.4,6.7 51.74,5.44 46.67,6.99 C41.6,8.54 41.88,14.73 41.88,14.73 C41.88,14.73 37.09,9.8 31.46,12.2 C25.83,14.6 27.59,23.39 28.43,26.14 C28.99,28.39 34.84,40.08 34.84,40.08 C34.84,40.08 25.92,34.05 18.72,32.69 C12.38,31.49 7.95,34.87 7.95,39.52 C7.95,44.17 11.47,46.42 11.47,46.42 C11.47,46.42 5.81,47.94 4.71,53.32 C3.94,57.12 5.46,60 8.16,62.05 C12.81,65.57 27.52,66.55 27.52,66.55 C27.52,66.55 16.82,67.25 11.33,70.63 C5.71,74.09 4.99,79.36 6.26,82.17 C7.53,84.98 13.58,86.39 13.58,86.39 C13.58,86.39 8.51,92.73 12.59,97.79 C16.67,102.85 22.73,102.72 26.53,100.89 C30.33,99.06 39.34,91.18 39.34,91.18 C39.34,91.18 31.94,102.88 31.46,109.2 C30.99,115.39 34.1,117.71 37.94,118.07 C41.41,118.4 43.99,115.4 43.99,115.4 C43.99,115.4 45.4,121.45 49.9,122.16 C54.4,122.87 59.05,120.89 61.87,114.7 C64.58,108.74 65.81,98.04 65.81,98.04 C65.81,98.04 68.48,114.98 74.4,119.34 C80.31,123.7 84.58,121.87 86.93,119.48 C89.18,116.81 88.76,110.89 88.76,110.89 C88.76,110.89 93.83,114.97 97.77,112.44 C101.71,109.91 100.87,104.7 99.6,100.05 C98.33,95.4 92,87.66 92,87.66 C92,87.66 101.43,97.09 109.03,96.81 C116.63,96.53 118.47,93.33 118.88,89.49 C119.3,85.55 115.92,82.31 115.92,82.31 C115.92,82.31 122.54,81.61 123.24,74.85 C123.94,68.09 116.9,65.84 113.95,65 C111,64.16 102.55,63.87 102.55,63.87 C102.55,63.87 115.36,60.35 118.88,56.41 C122.4,52.47 122.61,48.6 121.06,45.78 C119.58,43.09 113.95,42.05 113.95,42.05 C113.95,42.05 116.48,38.67 114.65,33.74 C112.82,28.81 105.22,28.67 101.28,29.94 C97.36,31.19 88.49,37.39 88.49,37.39 Z" fill="url(#SVGID_1_)"/>
  <path d="M53.15,48.6 C53.15,48.6 50.05,42.41 47.8,34.76 C46.96,31.9 44.35,23.41 44.98,22.89 C45.71,22.28 51.36,32.27 52.82,35.84 C54.08,38.93 58.36,46.82 58.36,46.82 L69.06,44.99 C69.06,44.99 72.77,36.68 73.89,34.43 C75.02,32.18 79.33,23.64 80.08,24.01 C80.97,24.45 78.95,32.22 77.26,37.01 C75.57,41.8 73.41,47.8 73.41,47.8 L82.42,54.51 C82.42,54.51 88.76,52.16 92.42,50.76 C96.08,49.35 102.7,47.38 102.98,48.23 C103.26,49.07 99.13,51.98 93.78,54.52 C88.43,57.06 83.64,59.82 83.64,59.82 L84.39,68.22 C84.39,68.22 92.09,72.11 95.61,73.95 C99.13,75.78 105.93,79.49 105.79,80.47 C105.65,81.46 95.94,78.55 93.4,77.84 C90.87,77.14 81.29,73.85 81.29,73.85 L75.94,80.75 C75.94,80.75 79.37,88.68 80.49,91.21 C81.62,93.74 85.65,104.4 84.95,104.82 C84.25,105.24 78.8,96.84 77.07,93.7 C75.33,90.56 70.03,81.87 70.03,81.87 L60.18,85.11 C60.18,85.11 56.94,92.29 54.97,96.37 C53,100.45 48.49,107.68 47.79,107.26 C47.09,106.84 50.37,95.81 51.5,92.43 C52.63,89.05 55.54,81.59 55.54,81.59 L47.8,75.4 C47.8,75.4 39.63,78.78 34.85,80.33 C30.06,81.88 23.59,84.27 23.59,83.15 C23.59,82.02 27.78,79.66 34.57,76.2 C42.41,72.21 45.97,70.62 45.97,70.62 L44.56,61.05 C44.56,61.05 38.27,58.89 33.77,57.2 C29.27,55.51 20.91,51.05 21.19,49.79 C21.47,48.52 28.79,51.2 33.44,52.61 C38.09,54.02 47.1,56.69 47.1,56.69 L53.15,48.6 Z" fill="#F2A05B"/>
  <path d="M47.8,52.73 C47.8,52.73 42.59,47.66 41.18,46.25 C39.77,44.84 36.82,41.89 37.52,40.9 C38.22,39.91 44,44.7 45.4,45.97 C46.81,47.24 51.88,50.9 51.88,50.9 L62.58,45.55 C62.58,45.55 62.72,40.76 62.86,38.37 C63,35.98 62.86,31.61 63.99,31.61 C65.12,31.61 65.54,37.66 65.68,39.78 C65.82,41.89 66.24,45.97 66.24,45.97 L77.08,49.49 C77.08,49.49 80.6,45.41 81.73,44.14 C82.86,42.87 85.39,39.07 86.52,39.92 C87.65,40.76 83.28,46.68 82.44,47.94 C81.6,49.21 78.78,52.87 78.78,52.87 L83.43,62.44 C83.43,62.44 88.64,62.3 91.6,62.16 C94.56,62.02 99.62,62.16 99.62,63 C99.62,63.84 95.3,65.02 91.36,65.44 C87.42,65.86 83.29,65.96 83.29,65.96 L81.65,75.53 C81.65,75.53 83.57,78.06 86.34,80.55 C88.81,82.77 90.8,85.43 90.23,86.28 C89.67,87.12 85.68,84.26 83.85,82.57 C82.02,80.88 78.64,77.92 78.64,77.92 L67.8,84.11 C67.8,84.11 67.8,89.18 67.8,90.59 C67.8,92 67.24,97.77 65.83,97.35 C64.42,96.93 64.56,91.58 64.56,89.89 C64.56,86.97 64.55,83.28 64.61,83.74 L52.32,80.74 C52.32,80.74 49.27,83.41 47.86,84.96 C46.45,86.51 42.6,90.31 41.62,89.18 C40.64,88.05 43.87,84.68 45.28,83.13 C46.69,81.58 50.07,78.2 50.07,78.2 L44.58,69.05 C44.58,69.05 39.23,69.19 37.54,69.19 C35.85,69.19 29.8,69.75 29.8,68.06 C29.8,66.37 35.15,66.37 37.68,66.23 C40.21,66.09 46.31,65.71 46.31,65.71 L47.8,52.73 Z" fill="#ED6C31"/>
  <path d="M44.99,54 C42.07,59.29 39.97,77.37 54.05,84.27 C68.13,91.17 81.31,82.72 85.12,71.6 C88.93,60.48 82.45,49.08 71.75,44.71 C61.05,40.34 49.49,45.83 44.99,54 Z" fill="#ED6C31"/>
  <path d="M58.08,49.21 C51.1,51.37 44.8,61.27 49.96,72.2 C54.41,81.63 65.16,83.65 73.42,78.21 C81.79,72.69 82.95,62.91 78.02,55.59 C73.1,48.27 65.82,46.82 58.08,49.21 Z" fill="#F2A05B"/>
  <path d="M54.83,52.6 C52.94,54.61 52.47,57.33 53.79,58.83 C55.11,60.33 58.69,59.63 60.29,57.42 C61.89,55.21 61.89,52.79 60.67,51.59 C59.1,50.04 56.34,51 54.83,52.6 Z" fill="#FCCD87"/>
  <path d="M62.91,50.99 C62.4,52.26 61.97,55.4 64.51,56.25 C66.91,57.05 67.94,55.59 68.73,54.14 C69.57,52.61 69.39,50.06 67.6,49.31 C65.28,48.32 63.48,49.59 62.91,50.99 Z" fill="#FCCD87"/>
  <path d="M69.34,54.05 C68.67,55.04 68.03,58.13 71.12,58.74 C74.37,59.38 75.25,55.27 73.79,53.77 C72.61,52.54 70.42,52.45 69.34,54.05 Z" fill="#FCCD87"/>
  <path d="M74.74,57.99 C74.12,58.54 73.43,60.38 74.93,61.46 C76.43,62.54 77.7,61.69 78.17,60.76 C78.44,60.21 78.64,59.07 77.79,58.23 C76.95,57.38 75.58,57.24 74.74,57.99 Z" fill="#FCCD87"/>
  <path d="M60.18,58.61 C59.32,60.58 59.75,63.05 61.85,63.69 C64.28,64.43 66.25,63 66.3,59.69 C66.32,58.44 65.54,57.12 63.67,56.78 C61.79,56.44 60.62,57.59 60.18,58.61 Z" fill="#FCCD87"/>
  <path d="M57.94,62.83 C56.33,62.69 55.08,64.42 55.08,65.97 C55.08,67.51 56.28,69.14 57.73,69.11 C59.81,69.06 60.85,67.82 60.8,65.77 C60.75,63.92 59.71,62.98 57.94,62.83 Z" fill="#FCCD87"/>
  <path d="M52.26,59.16 C50.57,59.11 48.88,60.52 48.93,63.34 C48.98,66.16 50.2,67.52 51.75,67.42 C53.3,67.33 55.03,66.11 55.22,63.1 C55.41,60.1 53.81,59.21 52.26,59.16 Z" fill="#FCCD87"/>
  <path d="M51.26,68.72 C49.51,70.14 50.67,72.62 51.65,73.96 C52.63,75.29 54.65,76.58 56.23,74.7 C57.8,72.82 56.62,70.5 55.79,69.46 C54.95,68.42 53.32,67.04 51.26,68.72 Z" fill="#FCCD87"/>
  <path d="M56.44,76.66 C56.79,78.37 57.94,79.05 59.54,79.01 C61.14,78.97 62.03,77.27 61.98,76.1 C61.93,74.93 60.95,73.55 59.26,73.43 C57.28,73.29 56.06,74.83 56.44,76.66 Z" fill="#FCCD87"/>
</svg>
